frontend/src/assets/marker.svg

<svg width="18" height="13" viewBox="0 0 18 13" fill="none" xmlns="http://www.w3.org/2000/svg">
<path d="M1.70711 6.29289C1.31658 5.90237 0.683417 5.90237 0.292893 6.29289C-0.0976311 6.68342 -0.0976311 7.31658 0.292893 7.70711L1.70711 6.29289ZM5.94975 11.9497L5.24264 12.6569C5.63316 13.0474 6.26631 13.0474 6.65684 12.6569L5.94975 11.9497ZM17.2639 2.05026C17.6544 1.65975 17.6544 1.02658 17.2639 0.636048C16.8734 0.245515 16.2402 0.245502 15.8497 0.636018L17.2639 2.05026ZM0.292893 7.70711L5.24264 12.6569L6.65685 11.2426L1.70711 6.29289L0.292893 7.70711ZM6.65684 12.6569L17.2639 2.05026L15.8497 0.636018L5.24266 11.2426L6.65684 12.6569Z" fill="#3BAC2B"/>
</svg>

<svg width="18" height="13" fill="none" xmlns="http://www.w3.org/2000/svg"><path d="M1.707 6.293A1 1 0 0 0 .293 7.707l1.414-1.414ZM5.95 11.95l-.707.707a1 1 0 0 0 1.414 0l-.707-.707Zm11.314-9.9A1 1 0 0 0 15.85.636l1.414 1.414ZM.293 7.707l4.95 4.95 1.414-1.414-4.95-4.95L.293 7.707Zm6.364 4.95L17.264 2.05 15.85.636 5.243 11.243l1.414 1.414Z" fill="#3BAC2B"/></svg>
